teeny/solid/facebook.svg

<svg width="15" height="15" viewBox="0 0 15 15" fill="none" xmlns="http://www.w3.org/2000/svg">
<path d="M0 7.5C0 3.35786 3.35786 0 7.5 0C11.6421 0 15 3.35786 15 7.5C15 11.4741 11.909 14.7263 8 14.9836V9H10V8H8V6.5C8 5.67157 8.67157 5 9.5 5H10V4H9.5C8.11929 4 7 5.11929 7 6.5V8H5V9H7V14.9836C3.09098 14.7263 0 11.4741 0 7.5Z" fill="black"/>
</svg>

<svg viewBox="0 0 15 15" xmlns="http://www.w3.org/2000/svg"><path d="M0 7.5C0 3.35 3.35 0 7.5 0 11.64 0 15 3.35 15 7.5c0 3.97-3.1 7.22-7 7.48V8.99h2v-1H8v-1.5c0-.83.67-1.5 1.5-1.5h.5v-1h-.5C8.11 3.99 7 5.1 7 6.49v1.5H5v1h2v5.98c-3.91-.26-7-3.51-7-7.49Z"/></svg>
